chess-rook.svg

<svg fill="currentColor" viewBox="0 0 24 24"><path d="M5 20h14v2H5zM17 2v3h-2V2h-2v3h-2V2H9v3H7V2H5v6h2v10h10V8h2V2z"/></svg>

<svg  viewBox="0 0 24 24" fill="currentColor"><path  d="M5,20H19V22H5V20M17,2V5H15V2H13V5H11V2H9V5H7V2H5V8H7V18H17V8H19V2H17Z"/></svg>
